X:260
T:Perfect Cure
M:6/8
L:1/8
K:G
Bcd G2 g | f2 e d2 c | Bcd G2 B | A3-A dc | 
Bcd G2 g | f2 e d2 c | Bcd def | g z2 d2 c | 
Bcd G2 g | f2 e d2 c | Bcd G2 B | A3-A dc | 
Bcd G2 g | f2 e d2 c | Bcd def | gde fga || 
bag a2 g | f2 e d2 a | bag f2 g | a3-a d'c' | 
bag a2 g | f2 e d2 c | Bcd def | gde fga | 
bag a2 g | f2 e d2 a | bag f2 g | a3-a d'c' | 
bag a2 g | f2 e d2 c | Bcd def | g z2 d2 c || 

